assets/images/buttons/tw.svg

<?xml version="1.0" encoding="UTF-8"?>
<svg width="60px" height="60px" viewBox="0 0 60 60" version="1.1" xmlns="http://www.w3.org/2000/svg" xmlns:xlink="http://www.w3.org/1999/xlink">
    <!-- Generator: Sketch 58 (84663) - https://sketch.com -->
    <title>tw-button</title>
    <desc>Created with Sketch.</desc>
    <g id="tw-button" stroke="none" stroke-width="1" fill="none" fill-rule="evenodd">
        <path d="M53.5714286,0 L6.42857143,0 C2.87946429,0 0,2.87946429 0,6.42857143 L0,53.5714286 C0,57.1205357 2.87946429,60 6.42857143,60 L53.5714286,60 C57.1205357,60 60,57.1205357 60,53.5714286 L60,6.42857143 C60,2.87946429 57.1205357,0 53.5714286,0 Z M47.0223214,21.2678571 C47.0491071,21.6428571 47.0491071,22.03125 47.0491071,22.40625 C47.0491071,34.0178571 38.2098214,47.3973214 22.0580357,47.3973214 C17.0758929,47.3973214 12.4553571,45.9508929 8.57142857,43.4598214 C9.28125,43.5401786 9.96428571,43.5669643 10.6875,43.5669643 C14.7991071,43.5669643 18.5758929,42.1741071 21.5892857,39.8169643 C17.7321429,39.7366071 14.4910714,37.2053571 13.3794643,33.7232143 C14.7321429,33.9241071 15.9508929,33.9241071 17.34375,33.5625 C13.3258929,32.7455357 10.3125,29.2098214 10.3125,24.9375 L10.3125,24.8303571 C11.4776786,25.4866071 12.84375,25.8883929 14.2767857,25.9419643 C11.8297074,24.3142456 10.3612599,21.5684501 10.3660714,18.6294643 C10.3660714,16.9955357 10.7946429,15.4955357 11.5580357,14.1964286 C15.8839286,19.5267857 22.3794643,23.0089286 29.6651786,23.3839286 C28.4196429,17.4241071 32.8794643,12.5892857 38.2366071,12.5892857 C40.7678571,12.5892857 43.0446429,13.6473214 44.6517857,15.3616071 C46.6339286,14.9866071 48.5357143,14.25 50.2232143,13.2455357 C49.5669643,15.28125 48.1875,16.9955357 46.3660714,18.0803571 C48.1339286,17.8928571 49.8482143,17.3973214 51.4285714,16.7142857 C50.2366071,18.46875 48.7366071,20.0223214 47.0223214,21.2678571 L47.0223214,21.2678571 Z" id="Path" fill="#FFFFFF" fill-rule="nonzero"></path>
    </g>
</svg>

<svg width="60" height="60" xmlns="http://www.w3.org/2000/svg"><path d="M53.571 0H6.43A6.43 6.43 0 000 6.429V53.57A6.43 6.43 0 006.429 60H53.57A6.43 6.43 0 0060 53.571V6.43A6.43 6.43 0 0053.571 0zm-6.549 21.268c.027.375.027.763.027 1.138 0 11.612-8.84 24.991-24.991 24.991A24.876 24.876 0 018.571 43.46c.71.08 1.393.107 2.117.107a17.61 17.61 0 0010.901-3.75 8.795 8.795 0 01-8.21-6.094c1.353.201 2.572.201 3.965-.16a8.784 8.784 0 01-7.032-8.626v-.107a8.778 8.778 0 003.965 1.112 8.765 8.765 0 01-3.91-7.313c0-1.633.428-3.133 1.191-4.433a24.94 24.94 0 0018.107 9.188c-1.245-5.96 3.214-10.795 8.572-10.795a8.752 8.752 0 016.415 2.773 17.212 17.212 0 005.571-2.116 8.76 8.76 0 01-3.857 4.834c1.768-.187 3.482-.683 5.063-1.366a18.489 18.489 0 01-4.407 4.554z" fill="#FFF" fill-rule="nonzero"/></svg>
